X:295
T:score92
L:1/8
Q:1/4=96
M:2/4
I:linebreak $
K:G
 .b2 .g2 |[M:4/4] (d2 ef .g2) .e2 | (B4 .e2) .c2 |$ (A2 Bc dBcA | cBAG) .b2 .g2 | e2 (ef .g2) e2 |$ %6
 ^c2 (de fdge | fd a2 gfef |[M:2/4] d4) |] %9
